ui/StatusQ/src/assets/img/icons/send.svg

<svg fill="none" height="24" viewBox="0 0 24 24" width="24" xmlns="http://www.w3.org/2000/svg"><path clip-rule="evenodd" d="m11.6192 17.1568-6.61756 2.7249c-.54765.2255-1.09216-.3287-.85708-.8723l7.15694-16.55047c.1205-.27858.395-.45893.6985-.45893s.578.18035.6984.45893l7.157 16.55047c.2351.5436-.3094 1.0978-.8571.8723l-6.6176-2.7249c-.2439-.1005-.5176-.1004-.7615 0zm-.3692-1.675c0 .1278-.0837.2393-.2019.288l-3.56877 1.4695c-.41489.1708-.82739-.249-.64931-.6608l3.94048-9.11243c.1077-.24912.4795-.17219.4795.09923zm1.5 0c0 .1278.0837.2393.2019.288l3.5687 1.4695c.4149.1708.8274-.249.6493-.6608l-3.9405-9.11243c-.1077-.24912-.4794-.17219-.4794.09923z" fill="#000" fill-rule="evenodd"/></svg>

<svg width="24" height="24" viewBox="0 0 24 24" fill="none" xmlns="http://www.w3.org/2000/svg">
<path fill-rule="evenodd" clip-rule="evenodd" d="M11.6192 17.1568L5.00164 19.8817C4.45399 20.1072 3.90948 19.553 4.14456 19.0094L11.3015 2.45893C11.422 2.18035 11.6965 2 12 2C12.3035 2 12.578 2.18035 12.6984 2.45893L19.8554 19.0094C20.0905 19.553 19.546 20.1072 18.9983 19.8817L12.3807 17.1568C12.1368 17.0563 11.8631 17.0564 11.6192 17.1568ZM11.25 15.4818C11.25 15.6096 11.1663 15.7211 11.0481 15.7698L7.47933 17.2393C7.06444 17.4101 6.65194 16.9903 6.83002 16.5785L10.7705 7.46607C10.8782 7.21695 11.25 7.29388 11.25 7.5653V15.4818ZM12.75 15.4818C12.75 15.6096 12.8337 15.7211 12.9519 15.7698L16.5206 17.2393C16.9355 17.4101 17.348 16.9903 17.1699 16.5785L13.2294 7.46607C13.1217 7.21695 12.75 7.29388 12.75 7.5653V15.4818Z" fill="black"/>
</svg>
